icons/bluetooth.svg

<svg xmlns="http://www.w3.org/2000/svg" width="24" height="24" viewBox="0 0 24 24">
  <path d="M11,2 C11,1.23933773 11.8073882,0.771014676 12.4583497,1.11084891 L12.5547002,1.16794971 L18.5547002,5.16794971 C19.0447584,5.49465518 19.1415091,6.1635825 18.7894401,6.6141119 L18.7071068,6.70710678 L13.415,12 L18.7071068,17.2928932 C19.1235762,17.7093626 19.0872606,18.3842742 18.6536724,18.7570082 L18.5547002,18.8320503 L12.5547002,22.8320503 C11.9217909,23.2539898 11.0842642,22.8419811 11.0059349,22.1118423 L11,22 L11,14.414 L6.70710678,18.7071068 C6.34662282,19.0675907 5.77939176,19.0953203 5.38710056,18.7902954 L5.29289322,18.7071068 C4.93240926,18.3466228 4.90467972,17.7793918 5.20970461,17.3871006 L5.29289322,17.2928932 L10.585,12 L5.29289322,6.70710678 C4.93240926,6.34662282 4.90467972,5.77939176 5.20970461,5.38710056 L5.29289322,5.29289322 C5.65337718,4.93240926 6.22060824,4.90467972 6.61289944,5.20970461 L6.70710678,5.29289322 L11,9.585 L11,2 Z M13,14.415 L13,20.13 L16.429,17.844 L13,14.415 Z M13,3.869 L13,9.584 L16.429,6.155 L13,3.869 Z"/>
</svg>

<svg xmlns="http://www.w3.org/2000/svg" viewBox="0 0 24 24">
  <path d="M11 2a1 1 0 0 1 1.46-.89l.1.06 6 4a1 1 0 0 1 .23 1.44l-.08.1L13.4 12l5.3 5.3a1 1 0 0 1-.06 1.46l-.1.07-6 4a1 1 0 0 1-1.54-.72v-7.7l-4.3 4.3a1 1 0 0 1-1.31.08l-.1-.08a1 1 0 0 1-.08-1.32l.08-.1L10.6 12 5.3 6.7a1 1 0 0 1-.08-1.31l.08-.1a1 1 0 0 1 1.32-.08l.1.08L11 9.6V2zm2 12.41v5.72l3.43-2.29L13 14.41zm0-10.54v5.71l3.43-3.42L13 3.86z"/>
</svg>
